packages/amis-editor-core/src/icons/clear.svg

<?xml version="1.0" standalone="no"?>
<!DOCTYPE svg PUBLIC "-//W3C//DTD SVG 1.1//EN" "http://www.w3.org/Graphics/SVG/1.1/DTD/svg11.dtd">
<svg t="1635936277152" class="icon" viewBox="0 0 1024 1024" version="1.1" xmlns="http://www.w3.org/2000/svg" p-id="2034"
     width="48" height="48" xmlns:xlink="http://www.w3.org/1999/xlink">
  <defs>
    <style type="text/css"></style>
  </defs>
  <path
    d="M452.225097 146.90005l-340.587939 340.587939c-13.073072 13.073072-34.058794 13.073072-47.131866 0-13.073072-13.073072-12.901058-34.058794 0-47.131866l340.587939-340.587939c13.073072-13.073072 34.058794-13.073072 47.131866 0C465.298169 112.841257 465.298169 133.826978 452.225097 146.90005L452.225097 146.90005z"
    p-id="2035"></path>
  <path
    d="M924.231816 618.734756l-340.587939 340.587939c-13.073072 13.073072-34.058794 13.073072-47.131866 0-13.073072-13.073072-12.901058-34.058794 0-47.131866l340.587939-340.587939c13.073072-13.073072 34.058794-13.073072 47.131866 0C937.304888 584.675962 937.132874 605.833697 924.231816 618.734756L924.231816 618.734756z"
    p-id="2036"></path>
  <path
    d="M451.193012 620.798925l-103.036452 103.036452c-13.073072 13.073072-34.058794 13.073072-47.131866 0-13.073072-13.073072-12.901058-34.058794 0-47.131866l103.036452-103.036452c13.073072-13.073072 34.058794-13.073072 47.131866 0C464.266084 586.740131 464.266084 607.897867 451.193012 620.798925L451.193012 620.798925z"
    p-id="2037"></path>
  <path
    d="M298.444482 524.987065l-74.654124 74.654124c-13.073072 13.073072-34.058794 13.073072-47.131866 0-13.073072-13.073072-12.901058-34.058794 0-47.131866l74.654124-74.654124c13.073072-13.073072 34.058794-13.073072 47.131866 0C311.34554 490.928271 311.34554 512.086007 298.444482 524.987065L298.444482 524.987065z"
    p-id="2038"></path>
  <path
    d="M545.28473 771.999328l-74.654124 74.654124c-13.073072 13.073072-34.058794 13.073072-47.131866 0-13.073072-13.073072-12.901058-34.058794 0-47.131866l74.654124-74.654124c13.073072-13.073072 34.058794-13.073072 47.131866 0C558.357803 737.940534 558.357803 758.926256 545.28473 771.999328L545.28473 771.999328z"
    p-id="2039"></path>
  <path
    d="M536.339997 959.322694 64.505291 487.660003c-13.073072-13.073072-13.073072-34.058794 0-47.131866 13.073072-13.073072 34.058794-12.901058 47.131866 0l471.834705 471.834705c13.073072 13.073072 13.073072 34.058794 0 47.131866C570.398791 972.395767 549.413069 972.395767 536.339997 959.322694L536.339997 959.322694z"
    p-id="2040"></path>
  <path
    d="M732.264069 763.570637 260.429363 291.735931c-13.073072-13.073072-13.073072-34.058794 0-47.131866 13.073072-13.073072 34.058794-12.901058 47.131866 0L779.223921 716.43877c13.073072 13.073072 13.073072 34.058794 0 47.131866C766.322862 776.643709 745.165127 776.471695 732.264069 763.570637L732.264069 763.570637z"
    p-id="2041"></path>
  <path
    d="M912.362842 219.490005l-107.680833-107.852847c-13.073072-13.073072-13.073072-34.058794 0-47.131866 13.073072-13.073072 34.058794-12.901058 47.131866 0l107.680833 107.852847c13.073072 13.073072 13.073072 34.058794 0 47.131866C946.421636 232.563077 925.263901 232.563077 912.362842 219.490005L912.362842 219.490005z"
    p-id="2042"></path>
  <path
    d="M587.256173 328.718965 405.437259 146.90005c-13.073072-13.073072-13.073072-34.058794 0-47.131866 13.073072-13.073072 34.058794-12.901058 47.131866 0l181.990929 181.990929c13.073072 13.073072 13.073072 34.058794 0 47.131866C621.486981 341.792038 600.329246 341.792038 587.256173 328.718965L587.256173 328.718965z"
    p-id="2043"></path>
  <path
    d="M877.09995 618.562741 695.281035 436.743827c-13.073072-13.073072-13.073072-34.058794 0-47.131866 13.073072-13.073072 34.058794-12.901058 47.131866 0l181.990929 181.990929c13.073072 13.073072 13.073072 34.058794 0 47.131866C911.330758 631.635814 890.173022 631.635814 877.09995 618.562741L877.09995 618.562741z"
    p-id="2044"></path>
  <path
    d="M959.322694 219.490005 742.240887 436.571813c-13.073072 13.073072-34.058794 13.073072-47.131866 0-13.073072-13.073072-12.901058-34.058794 0-47.131866l217.081807-217.081807c13.073072-13.073072 34.058794-13.073072 47.131866 0C972.395767 185.259197 972.395767 206.416933 959.322694 219.490005L959.322694 219.490005z"
    p-id="2045"></path>
  <path
    d="M851.641861 111.637158 634.38804 328.718965c-13.073072 13.073072-34.058794 13.073072-47.131866 0-13.073072-13.073072-12.901058-34.058794 0-47.131866L804.509995 64.505291c13.073072-13.073072 34.058794-13.073072 47.131866 0C864.714934 77.578364 864.54292 98.564085 851.641861 111.637158L851.641861 111.637158z"
    p-id="2046"></path>
</svg>

<svg class="icon" viewBox="0 0 1024 1024" xmlns="http://www.w3.org/2000/svg" width="48" height="48"><path d="M452.225 146.9 111.637 487.488a33.223 33.223 0 0 1-47.132 0c-13.073-13.073-12.9-34.059 0-47.132L405.093 99.768a33.223 33.223 0 0 1 47.132 0 33.223 33.223 0 0 1 0 47.132zm472.007 471.835L583.644 959.323a33.223 33.223 0 0 1-47.132 0c-13.073-13.073-12.901-34.06 0-47.132L877.1 571.603a33.223 33.223 0 0 1 47.132 0c13.073 13.073 12.9 34.23 0 47.132zm-473.039 2.064L348.157 723.835a33.223 33.223 0 0 1-47.132 0c-13.073-13.073-12.901-34.058 0-47.131L404.06 573.667a33.223 33.223 0 0 1 47.132 0c13.073 13.073 13.073 34.23 0 47.132zm-152.749-95.812-74.654 74.654a33.223 33.223 0 0 1-47.132 0c-13.073-13.073-12.9-34.059 0-47.132l74.655-74.654a33.223 33.223 0 0 1 47.131 0c12.902 13.073 12.902 34.231 0 47.132zM545.285 772l-74.654 74.653a33.223 33.223 0 0 1-47.132 0c-13.073-13.073-12.901-34.058 0-47.131l74.654-74.655a33.223 33.223 0 0 1 47.132 0 33.223 33.223 0 0 1 0 47.132z"/><path d="M536.34 959.323 64.505 487.66a33.223 33.223 0 0 1 0-47.132c13.073-13.073 34.06-12.9 47.132 0l471.835 471.835a33.223 33.223 0 0 1 0 47.132c-13.073 12.9-34.059 12.9-47.132-.172zM732.264 763.57 260.43 291.737a33.223 33.223 0 0 1 0-47.132c13.073-13.073 34.06-12.901 47.132 0L779.224 716.44a33.223 33.223 0 0 1 0 47.132c-12.901 13.073-34.059 12.9-46.96 0zm180.099-544.08L804.682 111.637a33.223 33.223 0 0 1 0-47.132c13.073-13.073 34.059-12.9 47.132 0l107.68 107.853a33.223 33.223 0 0 1 0 47.132c-13.072 13.073-34.23 13.073-47.131 0zM587.256 328.719 405.437 146.9a33.223 33.223 0 0 1 0-47.132c13.073-13.073 34.06-12.9 47.132 0L634.56 281.76a33.223 33.223 0 0 1 0 47.132c-13.073 12.901-34.23 12.901-47.304-.172zM877.1 618.563l-181.819-181.82a33.223 33.223 0 0 1 0-47.131c13.073-13.073 34.059-12.901 47.132 0l181.99 181.99a33.223 33.223 0 0 1 0 47.133c-13.072 12.9-34.23 12.9-47.303-.172z"/><path d="M959.323 219.49 742.24 436.572a33.223 33.223 0 0 1-47.132 0c-13.073-13.073-12.901-34.059 0-47.132L912.19 172.358a33.223 33.223 0 0 1 47.132 0c13.073 12.901 13.073 34.059 0 47.132zM851.642 111.637 634.388 328.72a33.223 33.223 0 0 1-47.132 0c-13.073-13.073-12.9-34.059 0-47.132L804.51 64.505a33.223 33.223 0 0 1 47.132 0c13.073 13.073 12.9 34.06 0 47.132z"/></svg>
